poi/svg/2004.svg

<?xml version="1.0" encoding="UTF-8" standalone="no"?>
<svg
   xmlns:dc="http://purl.org/dc/elements/1.1/"
   xmlns:cc="http://creativecommons.org/ns#"
   xmlns:rdf="http://www.w3.org/1999/02/22-rdf-syntax-ns#"
   xmlns:svg="http://www.w3.org/2000/svg"
   xmlns="http://www.w3.org/2000/svg"
   xmlns:sodipodi="http://sodipodi.sourceforge.net/DTD/sodipodi-0.dtd"
   xmlns:inkscape="http://www.inkscape.org/namespaces/inkscape"
   inkscape:version="1.0 (4035a4fb49, 2020-05-01)"
   sodipodi:docname="2004.svg"
   id="svg20"
   version="1.2"
   viewBox="0 0 42.519639 42.519639"
   height="14.999999mm"
   width="14.999999mm">
  <metadata
     id="metadata24">
    <rdf:RDF>
      <cc:Work
         rdf:about="">
        <dc:format>image/svg+xml</dc:format>
        <dc:type
           rdf:resource="http://purl.org/dc/dcmitype/StillImage" />
        <dc:title>Qt SVG Document</dc:title>
      </cc:Work>
    </rdf:RDF>
  </metadata>
  <sodipodi:namedview
     inkscape:current-layer="svg20"
     inkscape:window-maximized="0"
     inkscape:window-y="0"
     inkscape:window-x="0"
     inkscape:cy="28.346482"
     inkscape:cx="28.346482"
     inkscape:zoom="5.8410537"
     showgrid="false"
     id="namedview22"
     inkscape:window-height="480"
     inkscape:window-width="1034"
     inkscape:pageshadow="2"
     inkscape:pageopacity="0"
     guidetolerance="10"
     gridtolerance="10"
     objecttolerance="10"
     borderopacity="1"
     bordercolor="#666666"
     pagecolor="#ffffff" />
  <title
     id="title2">Qt SVG Document</title>
  <desc
     id="desc4">Generated with Qt</desc>
  <defs
     id="defs6" />
  <g
     transform="translate(5.25984,5.25984)"
     id="g18"
     stroke-linejoin="bevel"
     stroke-linecap="square"
     fill-rule="evenodd"
     stroke-width="1"
     stroke="#000000"
     fill="none">
    <g
       id="g10"
       font-style="normal"
       font-weight="400"
       font-size="7.8px"
       font-family="'MS Shell Dlg 2'"
       stroke="none"
       fill-opacity="1"
       fill="#a61215">
      <path
         id="path8"
         d="M 37.2598,16 C 37.2598,27.7415 27.7415,37.2598 16,37.2598 4.25851,37.2598 -5.25984,27.7415 -5.25984,16 -5.25984,4.25851 4.25851,-5.25984 16,-5.25984 27.7415,-5.25984 37.2598,4.25851 37.2598,16"
         fill-rule="evenodd"
         vector-effect="non-scaling-stroke" />
    </g>
    <g
       id="g14"
       font-style="normal"
       font-weight="400"
       font-size="7.8px"
       font-family="'MS Shell Dlg 2'"
       transform="translate(16,12.315)"
       stroke="none"
       fill-opacity="0.94902"
       fill="#ffffff">
      <path
         id="path12"
         d="m 6.41602,-3.84766 c 0.19596,-0.25195 0.40242,-0.31494 0.61938,-0.18896 0.21696,0.12598 0.35343,0.38143 0.40942,0.76636 0.05599,0.38492 0.028,0.87133 -0.08398,1.45922 -0.11198,0.5879 -0.38493,1.196782 -0.81885,1.826665 L 2.7207,5.83154 v 0.042 L 0.600098,3.12305 6.41602,-3.84766 m -7.70557,9.28028 1.028808,1.55371 -4.409178,5.98387 c -0.23796,0.28 -0.50741,0.4199 -0.80835,0.4199 -0.30095,0 -0.5599,-0.0839 -0.77686,-0.2519 -0.21696,-0.168 -0.35343,-0.3954 -0.40942,-0.6824 -0.05599,-0.2869 0.04899,-0.5774 0.31494,-0.8713 l 5.06006,-6.15188 m 7.45361,6.06788 c 0.22396,0.3219 0.30095,0.6334 0.23096,0.9343 -0.06999,0.301 -0.22746,0.5354 -0.47241,0.7034 -0.24496,0.168 -0.51791,0.2379 -0.81885,0.2099 -0.30094,-0.028 -0.5634,-0.1959 -0.78735,-0.5039 L -1.96143,3.33301 c -0.34993,0.22396 -0.78385,0.34293 -1.30175,0.35693 -0.51791,0.014 -0.90284,-0.16097 -1.15479,-0.5249 l -3.65332,-5.12305 c -0.15397,-0.22396 -0.12248,-0.41642 0.09448,-0.57739 0.21696,-0.16097 0.40943,-0.12248 0.5774,0.11548 l 2.81347,3.7373 0.98682,-0.692868 -2.62451,-3.863282 c -0.13998,-0.23796 -0.11198,-0.42692 0.08398,-0.56689 0.19597,-0.13998 0.38493,-0.09799 0.5669,0.12597 l 2.79248,3.695315 0.98681,-0.692871 -2.62451,-3.905274 c -0.13997,-0.19596 -0.10498,-0.37443 0.10498,-0.5354 0.20996,-0.16097 0.40593,-0.12248 0.58789,0.11548 l 3.6953148,5.186034 C 0.166178,0.477539 0.187174,0.844971 0.0332031,1.28589 -0.120768,1.72681 -0.372721,2.08024 -0.722656,2.34619 L 6.16406,11.5005 M 0.0541992,-9.26465 c 1.8896508,0 3.6673208,0.35694 5.3330108,1.0708 1.66569,0.71387 3.12142,1.69369 4.36718,2.93946 1.24581,1.24576 2.22561,2.70149 2.93941,4.367183 0.7139,1.66569 1.0708,3.443357 1.0708,5.333007 0,1.88965 -0.3569,3.66732 -1.0708,5.33301 C 11.98,11.4445 11.0002,12.8932 9.75439,14.125 8.50863,15.3568 7.0529,16.3296 5.38721,17.0435 3.72152,17.7573 1.94385,18.1143 0.0541992,18.1143 -1.83545,18.1143 -3.61312,17.7573 -5.27881,17.0435 -6.9445,16.3296 -8.39323,15.3568 -9.625,14.125 c -1.2318,-1.2318 -2.2046,-2.6805 -2.9185,-4.34619 -0.7138,-1.66569 -1.0708,-3.44336 -1.0708,-5.33301 0,-1.88965 0.357,-3.667317 1.0708,-5.333007 0.7139,-1.665693 1.6867,-3.121423 2.9185,-4.367183 1.23177,-1.24577 2.6805,-2.22559 4.34619,-2.93946 1.66569,-0.71386 3.44336,-1.0708 5.3330092,-1.0708 M 0.26416,17.4424 c 1.74967,0 3.39087,-0.3325 4.92358,-0.9973 1.53272,-0.6649 2.87297,-1.5677 4.02076,-2.7085 1.1478,-1.1408 2.0506,-2.4776 2.7085,-4.01028 0.6579,-1.53272 0.9868,-3.17391 0.9868,-4.92359 0,-1.74967 -0.3289,-3.39086 -0.9868,-4.92358 C 11.2591,-1.65356 10.3563,-2.99382 9.2085,-4.1416 8.06071,-5.28939 6.72046,-6.19572 5.18774,-6.8606 3.65503,-7.52547 2.01383,-7.85791 0.26416,-7.85791 c -1.74967,0 -3.39087,0.33244 -4.92358,0.99731 -1.53272,0.66488 -2.87297,1.57121 -4.02076,2.719 -1.14778,1.14778 -2.05062,2.48804 -2.70852,4.02075 -0.6578,1.53272 -0.9868,3.17391 -0.9868,4.92358 0,1.74968 0.329,3.39087 0.9868,4.92359 0.6579,1.53268 1.56074,2.86948 2.70852,4.01028 1.14779,1.1408 2.48804,2.0436 4.02076,2.7085 1.53271,0.6648 3.17391,0.9973 4.92358,0.9973"
         fill-rule="evenodd"
         vector-effect="none" />
    </g>
    <g
       id="g16"
       font-style="normal"
       font-weight="400"
       font-size="7.8px"
       font-family="'MS Shell Dlg 2'"
       stroke="none"
       fill-opacity="1"
       fill="#a61215" />
  </g>
</svg>

<?xml version="1.0" encoding="UTF-8" standalone="no"?>
<svg width="11.2889mm" height="11.2889mm"
 viewBox="0 0 32 32"
 xmlns="http://www.w3.org/2000/svg" xmlns:xlink="http://www.w3.org/1999/xlink"  version="1.2" baseProfile="tiny">
<title>Qt SVG Document</title>
<desc>Generated with Qt</desc>
<defs>
</defs>
<g fill="none" stroke="black" stroke-width="1" fill-rule="evenodd" stroke-linecap="square" stroke-linejoin="bevel" >

<g fill="#a61215" fill-opacity="1" stroke="none" transform="matrix(1,0,0,1,0,0)"
font-family="MS Shell Dlg 2" font-size="7.8" font-weight="400" font-style="normal" 
>
<path vector-effect="non-scaling-stroke" fill-rule="evenodd" d="M37.2598,16 C37.2598,27.7415 27.7415,37.2598 16,37.2598 C4.25851,37.2598 -5.25984,27.7415 -5.25984,16 C-5.25984,4.25851 4.25851,-5.25984 16,-5.25984 C27.7415,-5.25984 37.2598,4.25851 37.2598,16 "/>
</g>

<g fill="#ffffff" fill-opacity="0.94902" stroke="none" transform="matrix(1,0,0,1,16,12.315)"
font-family="MS Shell Dlg 2" font-size="7.8" font-weight="400" font-style="normal" 
>
<path vector-effect="none" fill-rule="evenodd" d="M6.41602,-3.84766 C6.61198,-4.09961 6.81844,-4.1626 7.0354,-4.03662 C7.25236,-3.91064 7.38883,-3.65519 7.44482,-3.27026 C7.50081,-2.88534 7.47282,-2.39893 7.36084,-1.81104 C7.24886,-1.22314 6.97591,-0.614258 6.54199,0.015625 L2.7207,5.83154 L2.7207,5.87354 L0.600098,3.12305 L6.41602,-3.84766 M-1.28955,5.43262 L-0.260742,6.98633 L-4.66992,12.9702 C-4.90788,13.2502 -5.17733,13.3901 -5.47827,13.3901 C-5.77922,13.3901 -6.03817,13.3062 -6.25513,13.1382 C-6.47209,12.9702 -6.60856,12.7428 -6.66455,12.4558 C-6.72054,12.1689 -6.61556,11.8784 -6.34961,11.5845 L-1.28955,5.43262 M6.16406,11.5005 C6.38802,11.8224 6.46501,12.1339 6.39502,12.4348 C6.32503,12.7358 6.16756,12.9702 5.92261,13.1382 C5.67765,13.3062 5.4047,13.3761 5.10376,13.3481 C4.80282,13.3201 4.54036,13.1522 4.31641,12.8442 L-1.96143,3.33301 C-2.31136,3.55697 -2.74528,3.67594 -3.26318,3.68994 C-3.78109,3.70394 -4.16602,3.52897 -4.41797,3.16504 L-8.07129,-1.95801 C-8.22526,-2.18197 -8.19377,-2.37443 -7.97681,-2.5354 C-7.75985,-2.69637 -7.56738,-2.65788 -7.39941,-2.41992 L-4.58594,1.31738 L-3.59912,0.624512 L-6.22363,-3.23877 C-6.36361,-3.47673 -6.33561,-3.66569 -6.13965,-3.80566 C-5.94368,-3.94564 -5.75472,-3.90365 -5.57275,-3.67969 L-2.78027,0.015625 L-1.79346,-0.677246 L-4.41797,-4.58252 C-4.55794,-4.77848 -4.52295,-4.95695 -4.31299,-5.11792 C-4.10303,-5.27889 -3.90706,-5.2404 -3.7251,-5.00244 L-0.0297852,0.183594 C0.166178,0.477539 0.187174,0.844971 0.0332031,1.28589 C-0.120768,1.72681 -0.372721,2.08024 -0.722656,2.34619 L6.16406,11.5005 M0.0541992,-9.26465 C1.94385,-9.26465 3.72152,-8.90771 5.38721,-8.19385 C7.0529,-7.47998 8.50863,-6.50016 9.75439,-5.25439 C11.0002,-4.00863 11.98,-2.5529 12.6938,-0.887207 C13.4077,0.778483 13.7646,2.55615 13.7646,4.4458 C13.7646,6.33545 13.4077,8.11312 12.6938,9.77881 C11.98,11.4445 11.0002,12.8932 9.75439,14.125 C8.50863,15.3568 7.0529,16.3296 5.38721,17.0435 C3.72152,17.7573 1.94385,18.1143 0.0541992,18.1143 C-1.83545,18.1143 -3.61312,17.7573 -5.27881,17.0435 C-6.9445,16.3296 -8.39323,15.3568 -9.625,14.125 C-10.8568,12.8932 -11.8296,11.4445 -12.5435,9.77881 C-13.2573,8.11312 -13.6143,6.33545 -13.6143,4.4458 C-13.6143,2.55615 -13.2573,0.778483 -12.5435,-0.887207 C-11.8296,-2.5529 -10.8568,-4.00863 -9.625,-5.25439 C-8.39323,-6.50016 -6.9445,-7.47998 -5.27881,-8.19385 C-3.61312,-8.90771 -1.83545,-9.26465 0.0541992,-9.26465 M0.26416,17.4424 C2.01383,17.4424 3.65503,17.1099 5.18774,16.4451 C6.72046,15.7802 8.06071,14.8774 9.2085,13.7366 C10.3563,12.5958 11.2591,11.259 11.917,9.72632 C12.5749,8.1936 12.9038,6.55241 12.9038,4.80273 C12.9038,3.05306 12.5749,1.41187 11.917,-0.12085 C11.2591,-1.65356 10.3563,-2.99382 9.2085,-4.1416 C8.06071,-5.28939 6.72046,-6.19572 5.18774,-6.8606 C3.65503,-7.52547 2.01383,-7.85791 0.26416,-7.85791 C-1.48551,-7.85791 -3.12671,-7.52547 -4.65942,-6.8606 C-6.19214,-6.19572 -7.53239,-5.28939 -8.68018,-4.1416 C-9.82796,-2.99382 -10.7308,-1.65356 -11.3887,-0.12085 C-12.0465,1.41187 -12.3755,3.05306 -12.3755,4.80273 C-12.3755,6.55241 -12.0465,8.1936 -11.3887,9.72632 C-10.7308,11.259 -9.82796,12.5958 -8.68018,13.7366 C-7.53239,14.8774 -6.19214,15.7802 -4.65942,16.4451 C-3.12671,17.1099 -1.48551,17.4424 0.26416,17.4424 "/>
</g>

<g fill="#a61215" fill-opacity="1" stroke="none" transform="matrix(1,0,0,1,0,0)"
font-family="MS Shell Dlg 2" font-size="7.8" font-weight="400" font-style="normal" 
>
</g>
</g>
</svg>
